;FLAVOR:Marlin
;TIME:22954
;Filament used: 20.3182m
;Layer height: 0.2
;MINX:26.2
;MINY:62.456
;MINZ:0.3
;MAXX:148.8
;MAXY:112.543
;MAXZ:34.3
;Generated with Creality Slicer 4.8.2-191
M140 S60
M105
M190 S60
M104 S200
M105
M109 S200
M82 ;absolute extrusion mode
G28 ;Home

G92 E0 ;Reset Extruder
G1 Z2.0 F3000 ;Move Z Axis up
G1 X10.1 Y20 Z0.28 F5000.0 ;Move to start position
G1 X10.1 Y170.0 Z0.28 F1500.0 E12 ;Draw the first line
G1 X10.4 Y170.0 Z0.28 F5000.0 ;Move to side a little
G1 X10.4 Y20 Z0.28 F1500.0 E25 ;Draw the second line
G92 E0 ;Reset Extruder
G1 Z2.0 F3000 ;Move Z Axis up

G92 E0
G92 E0
G1 F3600 E-3
;LAYER_COUNT:171
;LAYER:0
M107
G0 F6000 X32.472 Y63.651 Z0.3
;TYPE:SKIRT
G1 F3600 E0
G1 F900 X33.34 Y63.264 E0.07397
G1 X34.237 Y62.95 E0.14793
G1 X35.158 Y62.714 E0.22193
G1 X36.095 Y62.555 E0.2959
G1 X37.176 Y62.471 E0.38028
G1 X37.48 Y62.462 E0.40395
G1 X37.814 Y62.457 E0.42995
G1 X136.793 Y62.456 E8.13336
G1 X137.653 Y62.467 E8.2003
G1 X138.602 Y62.521 E8.27428
G1 X139.543 Y62.654 E8.34824
G1 X140.47 Y62.866 E8.42225
G1 X141.375 Y63.155 E8.49619
G1 X142.254 Y63.519 E8.57023
G1 X143.098 Y63.955 E8.64417
G1 X143.903 Y64.461 E8.71817
G1 X144.662 Y65.033 E8.79214
G1 X145.371 Y65.667 E8.86616
G1 X146.024 Y66.358 E8.94016
G1 X146.616 Y67.101 E9.0141
G1 X147.144 Y67.891 E9.08805
G1 X147.604 Y68.723 E9.16204
G1 X147.992 Y69.591 E9.23604
G1 X148.305 Y70.489 E9.31005
G1 X148.542 Y71.409 E9.38399
G1 X148.701 Y72.346 E9.45796
G1 X148.787 Y73.447 E9.54391
G1 X148.796 Y73.766 E9.56875
G1 X148.8 Y74.084 E9.5935
G1 X148.8 Y94.752 E11.20206
G1 X148.799 Y100.662 E11.66203
G1 X148.789 Y101.389 E11.71862
G1 X148.736 Y102.339 E11.79267
G1 X148.603 Y103.28 E11.86663
G1 X148.392 Y104.207 E11.94063
G1 X148.104 Y105.112 E12.01454
G1 X147.74 Y105.991 E12.08859
G1 X147.304 Y106.835 E12.16252
G1 X146.799 Y107.64 E12.23648
G1 X146.227 Y108.4 E12.31051
G1 X145.594 Y109.109 E12.38449
G1 X144.903 Y109.762 E12.45848
G1 X144.16 Y110.355 E12.53247
G1 X143.37 Y110.884 E12.60646
G1 X142.538 Y111.344 E12.68045
G1 X141.671 Y111.732 E12.75438
G1 X140.774 Y112.046 E12.82835
G1 X139.853 Y112.284 E12.90238
G1 X138.916 Y112.444 E12.97636
G1 X137.808 Y112.53 E13.06286
G1 X137.488 Y112.539 E13.08777
G1 X137.17 Y112.543 E13.11252
G1 X38.045 Y112.543 E20.82729
G1 X37.347 Y112.533 E20.88162
G1 X36.398 Y112.479 E20.9556
G1 X35.457 Y112.346 E21.02957
G1 X34.53 Y112.134 E21.10358
G1 X33.625 Y111.845 E21.17752
G1 X32.746 Y111.481 E21.25156
G1 X31.902 Y111.045 E21.3255
G1 X31.097 Y110.539 E21.3995
G1 X30.338 Y109.967 E21.47347
G1 X29.629 Y109.333 E21.54749
G1 X28.976 Y108.642 E21.62149
G1 X28.384 Y107.899 E21.69542
G1 X27.856 Y107.109 E21.76938
G1 X27.396 Y106.277 E21.84337
G1 X27.008 Y105.409 E21.91737
G1 X26.695 Y104.511 E21.99138
G1 X26.458 Y103.591 E22.06532
G1 X26.299 Y102.654 E22.13929
G1 X26.213 Y101.548 E22.22563
G1 X26.204 Y101.224 E22.25085
G1 X26.2 Y100.912 E22.27514
G1 X26.2 Y90.248 E23.1051
G1 X26.201 Y74.277 E24.3481
G1 X26.211 Y73.599 E24.40088
G1 X26.265 Y72.65 E24.47486
G1 X26.399 Y71.709 E24.54883
G1 X26.611 Y70.783 E24.62277
G1 X26.9 Y69.877 E24.69678
G1 X27.265 Y68.999 E24.77078
G1 X27.702 Y68.155 E24.84475
G1 X28.208 Y67.35 E24.91875
G1 X28.78 Y66.591 E24.99272
G1 X29.414 Y65.883 E25.06669
G1 X30.105 Y65.23 E25.14068
G1 X30.849 Y64.638 E25.21468
G1 X31.639 Y64.111 E25.28859
G1 X32.472 Y63.651 E25.36265
G0 F6000 X32.957 Y63.995
G1 F900 X33.814 Y63.639 E25.43488
G1 X34.7 Y63.359 E25.50719
G1 X35.605 Y63.156 E25.57938
G1 X36.526 Y63.031 E25.65172
G1 X37.191 Y62.991 E25.70357
G1 X37.495 Y62.982 E25.72724
G1 X37.814 Y62.977 E25.75207
G1 X136.793 Y62.976 E33.45548
G1 X137.645 Y62.987 E33.52179
G1 X138.572 Y63.04 E33.59406
G1 X139.491 Y63.173 E33.66633
G1 X140.395 Y63.385 E33.73859
G1 X141.278 Y63.673 E33.81088
G1 X142.132 Y64.036 E33.8831
G1 X142.952 Y64.472 E33.95538
G1 X143.732 Y64.976 E34.02766
G1 X144.465 Y65.546 E34.09992
G1 X145.146 Y66.176 E34.17213
G1 X145.771 Y66.863 E34.24441
G1 X146.334 Y67.601 E34.31665
G1 X146.832 Y68.385 E34.38894
G1 X147.26 Y69.209 E34.46121
G1 X147.616 Y70.066 E34.53343
G1 X147.897 Y70.951 E34.6057
G1 X148.101 Y71.857 E34.67798
G1 X148.226 Y72.777 E34.75024
G1 X148.267 Y73.462 E34.80365
G1 X148.276 Y73.781 E34.82848
G1 X148.28 Y74.084 E34.85207
G1 X148.28 Y94.751 E36.46055
G1 X148.279 Y100.655 E36.92005
G1 X148.269 Y101.382 E36.97664
G1 X148.216 Y102.309 E37.04891
G1 X148.084 Y103.228 E37.12116
G1 X147.873 Y104.132 E37.19341
G1 X147.585 Y105.015 E37.2657
G1 X147.222 Y105.87 E37.33799
G1 X146.787 Y106.69 E37.41023
G1 X146.283 Y107.47 E37.48251
G1 X145.714 Y108.203 E37.55473
G1 X145.084 Y108.885 E37.62699
G1 X144.398 Y109.51 E37.69922
G1 X143.66 Y110.074 E37.77151
G1 X142.876 Y110.572 E37.84379
G1 X142.053 Y111.001 E37.91603
G1 X141.196 Y111.357 E37.98825
G1 X140.311 Y111.638 E38.06052
G1 X139.405 Y111.843 E38.13281
G1 X138.485 Y111.968 E38.20507
G1 X137.793 Y112.01 E38.25903
G1 X137.473 Y112.019 E38.28395
G1 X137.17 Y112.023 E38.30753
G1 X38.053 Y112.023 E46.02168
G1 X37.355 Y112.013 E46.07601
G1 X36.428 Y111.96 E46.14827
G1 X35.509 Y111.827 E46.22054
G1 X34.605 Y111.615 E46.29281
G1 X33.722 Y111.327 E46.3651
G1 X32.868 Y110.964 E46.43732
G1 X32.048 Y110.528 E46.5096
G1 X31.268 Y110.024 E46.58187
G1 X30.535 Y109.454 E46.65414
G1 X29.854 Y108.824 E46.72634
G1 X29.229 Y108.137 E46.79863
G1 X28.666 Y107.399 E46.87087
G1 X28.168 Y106.615 E46.94316
G1 X27.74 Y105.791 E47.01542
G1 X27.384 Y104.934 E47.08765
G1 X27.103 Y104.049 E47.15992
G1 X26.899 Y103.143 E47.23219
G1 X26.774 Y102.223 E47.30445
G1 X26.733 Y101.533 E47.35825
G1 X26.724 Y101.209 E47.38348
G1 X26.72 Y100.912 E47.40659
G1 X26.72 Y90.249 E48.23648
G1 X26.721 Y74.285 E49.47894
G1 X26.731 Y73.607 E49.53171
G1 X26.785 Y72.68 E49.60398
G1 X26.918 Y71.761 E49.67625
G1 X27.13 Y70.857 E49.74852
G1 X27.419 Y69.975 E49.82075
G1 X27.782 Y69.121 E49.89298
G1 X28.218 Y68.301 E49.96526
G1 X28.723 Y67.522 E50.03751
G1 X29.293 Y66.789 E50.10978
G1 X29.923 Y66.107 E50.18204
G1 X30.611 Y65.483 E50.25433
G1 X31.349 Y64.92 E50.32657
G1 X32.133 Y64.423 E50.39881
G1 X32.957 Y63.995 E50.47108
G0 F6000 X32.624 Y64.744
G1 F900 X33.439 Y64.348 E50.5416
G1 X34.285 Y64.026 E50.61205
G1 X35.157 Y63.779 E50.68259
G1 X36.047 Y63.611 E50.75308
G1 X37.206 Y63.51 E50.84363
G1 X37.51 Y63.501 E50.8673
G1 X37.814 Y63.497 E50.89096
G1 X136.793 Y63.496 E58.59437
G1 X137.638 Y63.507 E58.66014
G1 X138.542 Y63.56 E58.73062
G1 X139.438 Y63.692 E58.8011
G1 X140.319 Y63.903 E58.87161
G1 X141.178 Y64.191 E58.94212
G1 X142.008 Y64.554 E59.01263
G1 X142.803 Y64.988 E59.08312
G1 X143.556 Y65.491 E59.1536
G1 X144.262 Y66.058 E59.22407
G1 X144.916 Y66.685 E59.29458
G1 X145.511 Y67.368 E59.36508
G1 X146.045 Y68.1 E59.4356
G1 X146.511 Y68.876 E59.50605
G1 X146.907 Y69.691 E59.57657
G1 X147.23 Y70.537 E59.64705
G1 X147.477 Y71.409 E59.71759
G1 X147.646 Y72.299 E59.78809
G1 X147.747 Y73.477 E59.88011
G1 X147.756 Y73.796 E59.90495
G1 X147.76 Y74.084 E59.92737
G1 X147.76 Y94.751 E61.53585
G1 X147.759 Y100.648 E61.99481
G1 X147.749 Y101.375 E62.05139
G1 X147.697 Y102.279 E62.12187
G1 X147.565 Y103.175 E62.19236
G1 X147.354 Y104.056 E62.26286
G1 X147.067 Y104.915 E62.33335
G1 X146.705 Y105.746 E62.4039
G1 X146.271 Y106.541 E62.47439
G1 X145.769 Y107.295 E62.54489
G1 X145.202 Y108.001 E62.61536
G1 X144.575 Y108.655 E62.68587
G1 X143.893 Y109.251 E62.75637
G1 X143.161 Y109.784 E62.82684
G1 X142.385 Y110.251 E62.89733
G1 X141.571 Y110.648 E62.96781
G1 X140.724 Y110.971 E63.03836
G1 X139.853 Y111.218 E63.10883
G1 X138.963 Y111.388 E63.17935
G1 X137.778 Y111.49 E63.27191
G1 X137.458 Y111.499 E63.29683
G1 X137.17 Y111.503 E63.31925
G1 X38.06 Y111.503 E71.03285
G1 X37.362 Y111.493 E71.08718
G1 X36.458 Y111.44 E71.15766
G1 X35.562 Y111.308 E71.22815
G1 X34.681 Y111.097 E71.29865
G1 X33.822 Y110.809 E71.36916
G1 X32.992 Y110.446 E71.43967
G1 X32.197 Y110.012 E71.51016
G1 X31.444 Y109.509 E71.58064
G1 X30.738 Y108.942 E71.65111
G1 X30.084 Y108.315 E71.72163
G1 X29.489 Y107.632 E71.79213
G1 X28.955 Y106.9 E71.86265
G1 X28.489 Y106.124 E71.93309
G1 X28.093 Y105.309 E72.00362
G1 X27.77 Y104.463 E72.07409
G1 X27.523 Y103.591 E72.14463
G1 X27.354 Y102.701 E72.21514
G1 X27.253 Y101.519 E72.30747
G1 X27.244 Y101.195 E72.33269
G1 X27.24 Y100.912 E72.35472
G1 X27.24 Y90.249 E73.18461
G1 X27.241 Y74.293 E74.42644
G1 X27.251 Y73.615 E74.47922
G1 X27.304 Y72.711 E74.54969
G1 X27.437 Y71.815 E74.62019
G1 X27.649 Y70.934 E74.69072
G1 X27.937 Y70.075 E74.76123
G1 X28.3 Y69.245 E74.83173
G1 X28.734 Y68.451 E74.90216
G1 X29.237 Y67.697 E74.9727
G1 X29.805 Y66.991 E75.04322
G1 X30.432 Y66.338 E75.11368
G1 X31.115 Y65.743 E75.18418
G1 X31.847 Y65.21 E75.25465
G1 X32.624 Y64.744 E75.32517
G1 F3600 E72.32517
G0 F6000 X36.839 Y89.581
G0 X39.32 Y92.079
G1 F3600 E75.32517
G1 F900 X135.68 Y92.078 E82.82474
G1 X135.68 Y92.921 E82.89035
G1 X39.32 Y92.921 E90.38993
G1 X39.32 Y92.079 E90.45546
G0 F6000 X38.8 Y91.559
G1 F900 X136.2 Y91.558 E98.03598
G1 X136.2 Y93.441 E98.18253
G1 X38.8 Y93.441 E105.76305
G1 X38.8 Y91.559 E105.90952
G0 F6000 X38.28 Y91.039
G1 F900 X136.72 Y91.038 E113.57098
G1 X136.72 Y93.961 E113.79847
G1 X38.28 Y93.961 E121.45993
G1 X38.28 Y91.039 E121.68735
G0 F6000 X37.76 Y90.519
G1 F900 X137.24 Y90.518 E129.42975
G1 X137.24 Y94.481 E129.73818
G1 X37.76 Y94.481 E137.48058
G1 X37.76 Y90.519 E137.78894
G1 F3600 E134.78894
;MESH:rail_test.STL
G0 F6000 X37.974 Y94.876
G0 X37.974 Y96.015
G0 X38.8 Y99.944
;TYPE:WALL-INNER
G1 F3600 E137.78894
G1 F900 X38.8 Y99.685 E137.8091
G1 X38.8 Y96.841 E138.03044
G1 X136.2 Y96.841 E145.61096
G1 X136.2 Y99.943 E145.85238
G1 X39.059 Y99.944 E153.41274
G1 X38.8 Y99.944 E153.42578
G0 F6000 X38.28 Y100.464
G1 F900 X38.28 Y100.205 E153.44594
G1 X38.28 Y96.321 E153.74822
G1 X136.72 Y96.321 E161.40968
G1 X136.72 Y100.463 E161.73205
G1 X38.539 Y100.464 E169.37335
G1 X38.28 Y100.464 E169.38639
G0 F6000 X37.76 Y100.984
;TYPE:WALL-OUTER
G1 F900 X37.76 Y95.801 E169.78977
G1 X137.24 Y95.801 E177.53217
G1 X137.24 Y100.983 E177.93548
G1 X37.76 Y100.984 E185.67788
G0 F6000 X38.03 Y100.714
G0 X38.91 Y99.434
G0 X39.31 Y99.434
;TYPE:SKIN
G1 F900 X39.31 Y97.351 E185.84
G1 X135.69 Y97.351 E193.34113
G1 X135.69 Y99.433 E193.50317
G1 X39.31 Y99.434 E201.0043
G0 F6000 X39.646 Y99.212
G1 F900 X39.53 Y99.096 E201.01707
G0 F6000 X39.53 Y98.361
G1 F900 X40.381 Y99.212 E201.11074
G0 F6000 X41.116 Y99.212
G1 F900 X39.53 Y97.625 E201.28536
G0 F6000 X40.21 Y97.57
G1 F900 X41.852 Y99.212 E201.46609
G0 F6000 X42.587 Y99.212
G1 F900 X40.945 Y97.57 E201.64681
G0 F6000 X41.681 Y97.57
G1 F900 X43.323 Y99.212 E201.82754
G0 F6000 X44.058 Y99.212
G1 F900 X42.416 Y97.57 E202.00827
G0 F6000 X43.151 Y97.57
G1 F900 X44.793 Y99.212 E202.189
G0 F6000 X45.529 Y99.212
G1 F900 X43.887 Y97.57 E202.36973
G0 F6000 X44.622 Y97.57
G1 F900 X46.264 Y99.212 E202.55046
G0 F6000 X46.999 Y99.212
G1 F900 X45.358 Y97.57 E202.73113
G0 F6000 X46.093 Y97.57
G1 F900 X47.735 Y99.212 E202.91186
G0 F6000 X48.47 Y99.212
G1 F900 X46.828 Y97.57 E203.09259
G0 F6000 X47.564 Y97.57
G1 F900 X49.206 Y99.212 E203.27332
G0 F6000 X49.941 Y99.212
G1 F900 X48.299 Y97.57 E203.45405
G0 F6000 X49.035 Y97.57
G1 F900 X50.676 Y99.212 E203.63472
G0 F6000 X51.412 Y99.212
G1 F900 X49.77 Y97.57 E203.81545
G0 F6000 X50.505 Y97.57
G1 F900 X52.147 Y99.212 E203.99618
G0 F6000 X52.883 Y99.212
G1 F900 X51.241 Y97.57 E204.17691
G0 F6000 X51.976 Y97.57
G1 F900 X53.618 Y99.212 E204.35764
G0 F6000 X54.353 Y99.212
G1 F900 X52.711 Y97.57 E204.53837
G0 F6000 X53.447 Y97.57
G1 F900 X55.089 Y99.212 E204.7191
G0 F6000 X55.824 Y99.212
G1 F900 X54.182 Y97.57 E204.89983
G0 F6000 X54.918 Y97.57
G1 F900 X56.56 Y99.212 E205.08056
G0 F6000 X57.295 Y99.212
G1 F900 X55.653 Y97.57 E205.26129
G0 F6000 X56.388 Y97.57
G1 F900 X58.03 Y99.212 E205.44202
G0 F6000 X58.766 Y99.212
G1 F900 X57.124 Y97.57 E205.62274
G0 F6000 X57.859 Y97.57
G1 F900 X59.501 Y99.212 E205.80347
G0 F6000 X60.237 Y99.212
G1 F900 X58.595 Y97.57 E205.9842
G0 F6000 X59.33 Y97.57
G1 F900 X60.972 Y99.212 E206.16493
G0 F6000 X61.707 Y99.212
G1 F900 X60.065 Y97.57 E206.34566
G0 F6000 X60.801 Y97.57
G1 F900 X62.443 Y99.212 E206.52639
G0 F6000 X63.178 Y99.212
G1 F900 X61.536 Y97.57 E206.70712
G0 F6000 X62.272 Y97.57
G1 F900 X63.913 Y99.212 E206.88779
G0 F6000 X64.649 Y99.212
G1 F900 X63.007 Y97.57 E207.06852
G0 F6000 X63.742 Y97.57
G1 F900 X65.384 Y99.212 E207.24925
G0 F6000 X66.12 Y99.212
G1 F900 X64.478 Y97.57 E207.42998
G0 F6000 X65.213 Y97.57
G1 F900 X66.855 Y99.212 E207.61071
G0 F6000 X67.59 Y99.212
G1 F900 X65.949 Y97.57 E207.79138
G0 F6000 X66.684 Y97.57
G1 F900 X68.326 Y99.212 E207.97211
G0 F6000 X69.061 Y99.212
G1 F900 X67.419 Y97.57 E208.15284
G0 F6000 X68.155 Y97.57
G1 F900 X69.797 Y99.212 E208.33357
G0 F6000 X70.532 Y99.212
G1 F900 X68.89 Y97.57 E208.5143
G0 F6000 X69.625 Y97.57
G1 F900 X71.267 Y99.212 E208.69503
G0 F6000 X72.003 Y99.212
G1 F900 X70.361 Y97.57 E208.87576
G0 F6000 X71.096 Y97.57
G1 F900 X72.738 Y99.212 E209.05649
G0 F6000 X73.474 Y99.212
G1 F900 X71.832 Y97.57 E209.23722
G0 F6000 X72.567 Y97.57
G1 F900 X74.209 Y99.212 E209.41794
G0 F6000 X74.944 Y99.212
G1 F900 X73.302 Y97.57 E209.59867
G0 F6000 X74.038 Y97.57
G1 F900 X75.68 Y99.212 E209.7794
G0 F6000 X76.415 Y99.212
G1 F900 X74.773 Y97.57 E209.96013
G0 F6000 X75.509 Y97.57
G1 F900 X77.151 Y99.212 E210.14086
G0 F6000 X77.886 Y99.212
G1 F900 X76.244 Y97.57 E210.32159
G0 F6000 X76.979 Y97.57
G1 F900 X78.621 Y99.212 E210.50232
G0 F6000 X79.357 Y99.212
G1 F900 X77.715 Y97.57 E210.68305
G0 F6000 X78.45 Y97.57
G1 F900 X80.092 Y99.212 E210.86378
G0 F6000 X80.827 Y99.212
G1 F900 X79.186 Y97.57 E211.04445
G0 F6000 X79.921 Y97.57
G1 F900 X81.563 Y99.212 E211.22518
G0 F6000 X82.298 Y99.212
G1 F900 X80.656 Y97.57 E211.40591
G0 F6000 X81.392 Y97.57
G1 F900 X83.034 Y99.212 E211.58664
G0 F6000 X83.769 Y99.212
G1 F900 X82.127 Y97.57 E211.76737
G0 F6000 X82.863 Y97.57
G1 F900 X84.504 Y99.212 E211.94804
G0 F6000 X85.24 Y99.212
G1 F900 X83.598 Y97.57 E212.12877
G0 F6000 X84.333 Y97.57
G1 F900 X85.975 Y99.212 E212.3095
G0 F6000 X86.711 Y99.212
G1 F900 X85.069 Y97.57 E212.49023
G0 F6000 X85.804 Y97.57
G1 F900 X87.446 Y99.212 E212.67096
G0 F6000 X88.181 Y99.212
G1 F900 X86.539 Y97.57 E212.85169
G0 F6000 X87.275 Y97.57
G1 F900 X88.917 Y99.212 E213.03242
G0 F6000 X89.652 Y99.212
G1 F900 X88.01 Y97.57 E213.21315
G0 F6000 X88.746 Y97.57
G1 F900 X90.388 Y99.212 E213.39387
G0 F6000 X91.123 Y99.212
G1 F900 X89.481 Y97.57 E213.5746
G0 F6000 X90.216 Y97.57
G1 F900 X91.858 Y99.212 E213.75533
G0 F6000 X92.594 Y99.212
G1 F900 X90.952 Y97.57 E213.93606
G0 F6000 X91.687 Y97.57
G1 F900 X93.329 Y99.212 E214.11679
G0 F6000 X94.065 Y99.212
G1 F900 X92.423 Y97.57 E214.29752
G0 F6000 X93.158 Y97.57
G1 F900 X94.8 Y99.212 E214.47825
G0 F6000 X95.535 Y99.212
G1 F900 X93.893 Y97.57 E214.65898
G0 F6000 X94.629 Y97.57
G1 F900 X96.271 Y99.212 E214.83971
G0 F6000 X97.006 Y99.212
G1 F900 X95.364 Y97.57 E215.02044
G0 F6000 X96.1 Y97.57
G1 F900 X97.741 Y99.212 E215.20111
G0 F6000 X98.477 Y99.212
G1 F900 X96.835 Y97.57 E215.38184
G0 F6000 X97.57 Y97.57
G1 F900 X99.212 Y99.212 E215.56257
G0 F6000 X99.948 Y99.212
G1 F900 X98.306 Y97.57 E215.7433
G0 F6000 X99.041 Y97.57
G1 F900 X100.683 Y99.212 E215.92403
G0 F6000 X101.418 Y99.212
G1 F900 X99.777 Y97.57 E216.1047
G0 F6000 X100.512 Y97.57
G1 F900 X102.154 Y99.212 E216.28543
G0 F6000 X102.889 Y99.212
G1 F900 X101.247 Y97.57 E216.46616
G0 F6000 X101.983 Y97.57
G1 F900 X103.625 Y99.212 E216.64689
G0 F6000 X104.36 Y99.212
G1 F900 X102.718 Y97.57 E216.82762
G0 F6000 X103.453 Y97.57
G1 F900 X105.095 Y99.212 E217.00835
G0 F6000 X105.831 Y99.212
G1 F900 X104.189 Y97.57 E217.18907
G0 F6000 X104.924 Y97.57
G1 F900 X106.566 Y99.212 E217.3698
G0 F6000 X107.302 Y99.212
G1 F900 X105.66 Y97.57 E217.55053
G0 F6000 X106.395 Y97.57
G1 F900 X108.037 Y99.212 E217.73126
G0 F6000 X108.772 Y99.212
G1 F900 X107.13 Y97.57 E217.91199
G0 F6000 X107.866 Y97.57
G1 F900 X109.508 Y99.212 E218.09272
G0 F6000 X110.243 Y99.212
G1 F900 X108.601 Y97.57 E218.27345
G0 F6000 X109.337 Y97.57
G1 F900 X110.978 Y99.212 E218.45412
G0 F6000 X111.714 Y99.212
G1 F900 X110.072 Y97.57 E218.63485
